storage/app/icons/phosphoricons/regular/device-tablet.svg

<svg xmlns="http://www.w3.org/2000/svg" fill="currentColor" viewBox="0 0 256 256"><path d="M192 24H64a24 24 0 0 0-24 24v160a24 24 0 0 0 24 24h128a24 24 0 0 0 24-24V48a24 24 0 0 0-24-24M56 72h144v112H56Zm8-32h128a8 8 0 0 1 8 8v8H56v-8a8 8 0 0 1 8-8m128 176H64a8 8 0 0 1-8-8v-8h144v8a8 8 0 0 1-8 8"/></svg>

<svg xmlns="http://www.w3.org/2000/svg" viewBox="0 0 256 256" fill="currentColor"><path d="M192,24H64A24,24,0,0,0,40,48V208a24,24,0,0,0,24,24H192a24,24,0,0,0,24-24V48A24,24,0,0,0,192,24ZM56,72H200V184H56Zm8-32H192a8,8,0,0,1,8,8v8H56V48A8,8,0,0,1,64,40ZM192,216H64a8,8,0,0,1-8-8v-8H200v8A8,8,0,0,1,192,216Z"/></svg>
